react-vite-app/public/moderator-icon.svg

<?xml version="1.0" encoding="utf-8"?>
<!-- Generator: Adobe Illustrator 27.7.0, SVG Export Plug-In . SVG Version: 6.00 Build 0)  -->
<svg version="1.1" id="Слой_1" xmlns="http://www.w3.org/2000/svg" xmlns:xlink="http://www.w3.org/1999/xlink" x="0px" y="0px"
	 viewBox="0 0 18 18" style="enable-background:new 0 0 18 18;" xml:space="preserve">
<style type="text/css">
	.st0{fill:#00FFFF;}
	.st1{fill:#FFEB37;}
</style>
<path class="st0" d="M16,0H2C0.9,0,0,0.9,0,2v14c0,1.1,0.9,2,2,2h14c1.1,0,2-0.9,2-2V2C18,0.9,17.1,0,16,0z M16,16H2V2h14V16z M4,7
	h2v7H4V7z M8,4h2v10H8V4z M12,10h2v4h-2V10z"/>
<rect x="14.4" class="st1" width="1.6" height="5.7"/>
<rect x="14.4" y="-0.1" transform="matrix(-1.836970e-16 1 -1 -1.836970e-16 17.9415 -12.3883)" class="st1" width="1.6" height="5.7"/>
</svg>

<svg width="18" height="18" viewBox="0 0 18 18" fill="none" xmlns="http://www.w3.org/2000/svg">
<path d="M16 0H2C0.9 0 0 0.9 0 2V16C0 17.1 0.9 18 2 18H16C17.1 18 18 17.1 18 16V2C18 0.9 17.1 0 16 0ZM16 16H2V2H16V16ZM4 7H6V14H4V7ZM8 4H10V14H8V4ZM12 10H14V14H12V10Z" fill="black"/>
</svg>
